!!!!SEGMENT: pl-wnifc--6434-n--001_stefani-jozef--polonaise.krn
!!!cenid: 18xx:3937
!!!COM: Stefani, Józef
!!!COM-rismID: pe30024097
!!!CDT: 1800/04/16-1876/03/19
!!!CNT: Polish
!!!OTL: Polonaise
!!!PDT:
!!!AGN:
!!!SMS-siglum: PL-Wnifc
!!!SMS-shelfmark: 6434/n
!!!SMS-shelfwork: 001 W
!!!SMS-variant:
!!!SMS-altvar:
!!!NIFC-rismSourceID: 1001010067
!!!NIFC-rismChildID: 1001010070
!!!NIFC-islandoraID: nifc:212712
!!!URL-pdf-islandora: https://repozytorium.nifc.pl/islandora/object/nifc:212712/datastream/PDF/view
!!!URL-scan: https://polish.musicsources.pl/pl/lokalizacje/galeria/druki-muzyczne/16853 @EN{Scan on Polish Music Sources Website} @PL{Skany w portalu Dziedzictwo Muzyki Polskiej w otwartym dostępie}
!!!ONB-nifc: UWAGA: Polonez 001 na str. 2-3
!!!AIN: 2 piano
!!!key: B-
**kern	**kern	**dynam
*part2	*part1	*part1
*staff2	*staff1	*
*I"PIANOFORTE	*I"PIANOFORTE	*
*I'pf	*I'pf	*
*ICklav	*ICklav	*
*Ipiano	*Ipiano	*
*clefF4	*clefG2	*
*k[b-e-]	*k[b-e-]	*
*B-:	*B-:	*
*M3/4	*M3/4	*
=1	=1	=1
(16BB-/LL	(16b-\LL	ff
16AA/	16a\	.
16BB-/	16b-\	.
16AA/JJ	16a\JJ	.
16BB-/LL	16b-\LL	.
16C/	16cc\	.
16D/	16dd\	.
16C/JJ)	16cc\JJ)	.
(16BB-\LL	(16b-\LL	.
32C\L	32cc\L	.
32D\	32dd\	.
32E-\	32ee-\	.
32F\	32ff\	.
32G\	32gg\	.
32A\JJJ)	32aa\JJJ)	.
=2	=2	=2
8B-\	8bb-\	.
8b->\	8dd/L 8ff	.
8a>\L	(>8cc/ 8ee- 8gg	>
8b->\	8dd/) 8ff	.
8f#X>\	(>8cc/ 8ee-	] >
8g>\J	8b-/J) 8dd	]]
=3	=3	=3
16G\LL	(16g/LL	.
16F#X\	16f#X/	.
16G\	16g/	.
16F#\JJ	16f#/JJ	.
16G\LL	16g/LL	.
16A\	16a/	.
16B-\	16b-/	.
16A\JJ	16a/JJ)	.
16G\LL	(16g/LL	.
(32A\L	32a/L	.
32B-\	32b-/	.
32c\	32cc/	.
32d\	32dd/	.
32en\	32een/	.
32f#X\JJJ)	32ff#X/JJJ)	.
=4	=4	=4
8g\	8gg\	.
8g\	8b-/L 8dd	.
(8f#X\L	(>8a/ 8cc 8ee-	>
8g\)	8b-/) 8dd	.
(8d\	(>8a/ 8cc	] >
8c\J)	8g/J) 8b-	]]
=5	=5	=5
(16E-\LL	(16e-/LL	.
16D\	16d/	.
16E-\	16e-/	.
16D\JJ	16d/JJ	.
16E-\LL	16e-/LL	.
16D\	16d/)	.
16E-\	16e-'/	.
16E-\JJ)	16e-'/JJ	.
(16En\LL	(16enX/LL	.
16D\)	16d/)	.
16E'\	16e'/	.
16E'\JJ	16e'/JJ	.
=6	=6	=6
16F\LL	16f\LL	.
16FF/	16dd\ 16bb-	.
16F\	16dd\ 16bb-	.
16FF/JJ	16dd\JJ 16bb-	.
8F\	8cc\ 8aa	.
8r	(16ff\LL	p
.	16fff\JJ)	.
4r	(16ff\LL	.
.	16fff\)	.
.	(16ff\	.
.	16fff\JJ)	.
!!LO:LB:g=original	!	!
=7!|:	=7!|:	=7!|:
8BBB-'>/L 8BB-	(16dd\LL 16ff	.
!	!LO:TX:b:t=dol.	!
.	16cc#X\ 16een	.
8F'\J	16dd\ 16ff	.
.	16ccn\JJ) 16een	.
(8B-\L 8d	8b-\L 8dd	<
8F\	8dd`\ 8ff	.
8B-\ 8d	(8ee\ 8gg	[ >
8F\J)	8dd\J) 8ff	]]
=8	=8	=8
8BB-'\L	16dd\LL 16ff	.
.	16cc#X\ 16een	.
8F'\	16dd\ 16ff	.
.	16ccn\JJ 16een	.
(8B-\ 8d	8b-\L 8dd	<
8F\	8dd`\ 8ff	.
8B-\ 8d	8ee\ 8gg	[ >
8F\J)	8dd\J 8ff	]]
=9	=9	=9
(8B-\L 8d	(8ee-`\L 8gg	>
8F\	16dd\Jk) 16ff	.
.	16r	]
8B-\ 8d	(8cc#X`\L 8een	>
8F\	16dd\Jk) 16ff	.
.	16r	]
8B-\ 8d	8ee`\L 8gg	>
8F\J)	16dd\Jk 16ff	.
.	16r	]
=10	=10	=10
8FF'\L	(4dd\ 4ff	.
8F'\	.	.
(8c\ 8e-	8ccn\) 8ee-X	.
8F\	(8cc`\L 8ee-	< [
8A\ 8c	8bn\ 8dd	>
8F\J)	8cc\J) 8ee-	] ]]
=11	=11	=11
8FF'\L	16cc\LL 16ee-	.
.	16bn\ 16dd	.
8F'\	16cc\ 16ee-	.
.	16b-X\JJ 16dd	.
(8c\ 8e-	8a\L 8cc	<
8F\	8cc\ 8ee-	.
8A\ 8c	8dd`\ 8ff	[ >
8F\J)	8cc\J 8ee-	]]
=12	=12	=12
*rep	*rep	*
8FF'\L	16cc\LL 16ee-	.
.	16bn\ 16dd	.
8F'\	16cc\ 16ee-	.
.	16b-X\JJ 16dd	.
(8c\ 8e-	8a\L 8cc	.
8F\	8cc\ 8ee-	.
8A\ 8c	8dd`\ 8ff	.
8F\J)	8cc\J 8ee-	.
*Xrep	*Xrep	*
=13	=13	=13
8A\L 8c	8dd\L 8ff	.
8F\	16cc\Jk 16ee-	.
.	16r	.
8A\ 8c	8bn\L 8dd	.
8F\	16cc\Jk 16ee-	.
.	16r	.
8A\ 8c	8dd\L 8ff	.
8F\J	16cc\Jk 16ee-	.
.	16r	.
!!LO:LB:g=original	!	!
=14	=14	=14
8BB-\L	(4cc\ 4ee-	>
8F\J	.	.
8B-\ 8d	16b-\LL) 16dd	]
.	16f'\	.
8r	16g'\	.
.	16a'\JJ	.
4r	16b-'\LL	<
.	16cc'\	.
.	16dd'\	.
.	16ee-'\JJ	[[
=15	=15	=15
(8B-\L	(16dd\LL 16ff	f
.	16cc#X\ 16een	.
8BB-/)	16dd\ 16ff	.
.	16ccn\JJ) 16ee-X	.
8B-'\	(16b-\LL 16dd	.
.	16dd\) 16bb-	.
8B-'\	16dd'\ 16bb-	.
.	16dd'\JJ 16bb-	.
(8B-\	(16ff\LL 16ddd	.
.	16ee-\) 16ccc	.
8BB-/J)	16dd'\ 16bb-	.
.	16dd'\JJ 16bb-	.
=16	=16	=16
*	*rep	*
(8G\L	(16dd\LL 16ff	.
.	16cc#X\ 16een	.
8GG/)	16dd\ 16ff	.
.	16ccn\JJ) 16ee-X	.
8G'\	(16b-\LL 16dd	.
.	16dd\) 16bb-	.
8G'\	16dd'\ 16bb-	.
.	16dd'\JJ 16bb-	.
(8G\	(16ff\LL 16ddd	.
.	16ee-\) 16ccc	.
8GG/J)	16dd'\ 16bb-	.
.	16dd'\JJ 16bb-	.
*	*Xrep	*
=17	=17	=17
(8E-\L	(16ee-\LL 16gg	.
.	16dd\ 16ff#X	.
8EE-/)	16ee-\ 16gg	.
.	16dd\JJ) 16ffn	.
8E-'\	(16cc\LL 16ee-	.
!	!	!LO:HP:b:t=cres
.	16ee-\) 16ccc	<
8E-'\	16ee-'\ 16ccc	.
.	16ee-'\JJ 16ccc	.
(8E-\	(16gg\LL 16eee-	.
.	16ff\) 16ddd	.
8EE-/J)	16ee-'\ 16ccc	.
.	16dd'\JJ 16ccc	.
=18	=18	=18
*rep	*rep	*
(8E-\L	(16ee-\LL 16gg	.
.	16dd\ 16ff#X	.
8EE-/)	16ee-\ 16gg	.
.	16dd\JJ) 16ffn	.
8E-'\	(16cc\LL 16ee-	.
.	16ee-\) 16ccc	.
8E-'\	16ee-'\ 16ccc	.
.	16ee-'\JJ 16ccc	.
(8E-\	(16gg\LL 16eee-	.
.	16ff\) 16ddd	.
8EE-/J)	16ee-'\ 16ccc	.
.	16dd'\JJ 16ccc	.
*Xrep	*Xrep	*
=19	=19	=19
8FF'/L	(16dd\LL 16bb-	.
.	16dd\) 16ff	.
8F'\J	16dd'\ 16ff	.
.	16dd'\JJ 16ff	.
8B-\L	(16dd\LL 16ff	.
.	16cc#X\) 16een	.
8F\	16dd'\ 16ff	.
.	16b-'\JJ 16dd	.
8A\	(16ccn\LL 16een	.
.	16bn\ 16dd	.
8F\J	16cc\ 16ee	.
.	16a\JJ) 16cc	.
!!LO:LB:g=original	!	!
=20	=20	=20
8B-\L	(16b-\LL 16dd	.
.	16dd\) 16ff	.
8F\	16dd'\ 16ff	.
.	16dd'\JJ 16ff	.
8B-\	16dd\LL 16ff	.
.	16cc#X\ 16een	.
8F\J	16dd\ 16ff	.
.	16b-\JJ 16dd	.
8A\L	16ccn\LL 16ee-X	.
.	16bn\ 16dd	.
8F\J	16cc\ 16ee-	.
.	16a\JJ 16cc	.
=21	=21	=21
8B-\L	16b-\LL 16dd	.
.	16f\ 16b-	.
8BB-\ 8B-	16dd\ 16ff	.
.	16b-\JJ 16dd	.
8BB-\ 8B-	16dd\LL 16ff	<
.	16b-\ 16dd	.
8BB-\J 8B-	16ff\ 16bb-	.
.	16dd\JJ 16ff	.
8EE-/L 8E-	16gg\LL 16bb-	.
.	16ee-\ 16gg	.
8EEn/J 8En	16bb-\ 16ddd-X	.
.	16gg\JJ 16bb-	[
=22	=22	=22
8F\L	16dd\LL 16ff	.
.	16b-\ 16dd	.
8FF/J	16cc\ 16ee-	.
.	16e-\JJ 16cc	.
8r	4e-/ 4a 4cc	.
8FF/	.	.
4BB-/	8d/ 8b-	.
!	!LO:TX:t=P:problem: fermata nad kreską taktową	!
.	8r;	.
=23:|!|:	=23:|!|:	=23:|!|:
(32qqD/LLL	(32qqd/LLL	ff
32qqEn/	32qqen/	.
32qqF#X/JJJ)	32qqf#X/JJJ)	.
8G\L	8g/L	.
16GG\L 16G	16g/L	.
16GG\JJ 16G	16g/JJ	.
8GG\L 8G	8g/L	.
8G`\ 8g	8gg`\	.
8D`\ 8d	8dd`\	.
8BB-`\J 8B-	8b-`\J	.
=24	=24	=24
16GG\LL 16G	(16g\LL	p
16B-\ 16d	16b-\) 16dd	.
16B-\ 16d	16b-'\ 16dd	.
16B-\JJ 16d	16b-'\JJ 16dd	.
16A\LL 16c#X	(16a\LL 16cc#X	.
16B-\ 16d	16b-\) 16dd	.
16B-\ 16d	16b-'\ 16dd	.
16B-\JJ 16d	16b-'\JJ 16dd	.
16cn\LL 16e-	(16ccn\LL 16ee-	.
16B-\ 16d	16b-\) 16dd	.
16B-\ 16d	16b-'\ 16dd	.
16B-\JJ 16d	16b-'\JJ 16dd	.
=25	=25	=25
8A\ 8c	8a\ 8cc	.
(32D\LLL	(32d/LLL	.
32En\	32en/	.
32F#X\	32f#X/	.
32G\JJJ)	32g/JJJ)	.
16A\LL	16a/LL	.
(32F#\L	(32f#/L	.
32G\	32g/	.
32A\	32a/	.
32B-\	32b-/	.
32c\	32cc/	.
32d\JJJ)	32dd/JJJ)	.
!!LO:LB:g=original	!	!
16e-X\LL	(16ee-X/LL	.
32e-\L	32ee-/L	.
32d\	32dd/	.
32c\	32cc/	.
32B-\	32b-/	.
32A\	32a/	.
32G\JJJ	32g/JJJ)	.
=26	=26	=26
16F#X\	16f#X/	.
16A\LL 16c	16a\LL 16cc	.
16A\ 16c	16a'\ 16cc	.
16A\JJ 16c	16a'\JJ 16cc	.
16G#X\LL 16Bn	(16g#X\LL 16bn	.
16A\ 16c	16a\) 16cc	.
16A\ 16c	16a'\ 16cc	.
16A\JJ 16c	16a'\JJ 16cc	.
16B-X\LL 16d	(16b-X\LL 16dd	.
16A\ 16c	16a\) 16cc	.
16A\ 16c	16a'\ 16cc	.
16A\JJ 16c	16a'\JJ 16cc	.
=27	=27	=27
8G\ 8B-	8g\ 8b-	.
8B-\	16b-\LL 16gg	.
.	16g\JJ	.
8G\L	16b-\LL 16gg	<
.	16g\	.
16D\L	16b-\ 16gg	.
16BB-\J	16g\JJ	.
8GG\	16b-\LL 16gg	.
.	16g\	.
8G\J	16b-\ 16gg	.
.	16g\JJ	[[
=28	=28	=28
8D\L 8Fn	16ffn\LL 16aa-X	p
.	16een\ 16gg	.
8BB-\J	16ff\ 16aa-	.
.	16ee-\JJ 16gg	.
8F\L 8A	16dd\LL 16ff	.
.	16cc#X\ 16een	.
8BB-\J	16dd\ 16ff	.
.	16ccn\JJ 16ee-X	.
8F\L 8A	16b-\LL 16dd	.
.	16dd\ 16ff	.
8BB-\J	16ee-y\ 16gg	.
.	16ff\JJ 16aa-	.
=29	=29	=29
8E-\L 8G	16gg\LL 16bb-	.
.	16ff#X\ 16aan	.
8BB-\J	16gg\ 16bb-	.
.	16ffn\JJ 16aa-X	.
8E-\L 8G	16ee-\LL 16gg	.
.	16dd\ 16ff	.
8BB-\J	16ee-\ 16gg	.
.	16aa-\JJ 16ccc	.
8E-\L 8G	16gg\LL 16bb-	.
.	16ff#X\ 16aan	.
8BB-\J	16gg\ 16bb-	.
.	16ee-\JJ 16gg	.
!!LO:PB:g=original	!	!
=30	=30	=30
8D\L 8A-X	16ffn\LL 16aa-X	.
.	16een\ 16gg	.
8BB-\J	16ff\ 16aa-	.
.	16ee-X\JJ 16gg	.
8F\L 8A-	16dd\LL 16ff	.
.	16cc#X\ 16een	.
8BB-\	16dd\ 16ff	.
.	16ccn\JJ 16ee-X	.
8F\ 8A-	16b-\LL 16dd	.
.	16dd\ 16ff	.
!	!	!LO:HP:b:t=cres
8BB-\J	16ee-\ 16gg	<
.	16ff\JJ 16aa-	.
=31	=31	=31
8E-\L 8G	16gg\LL 16bb-	.
.	16ff#X\ 16aan	.
8BB-\J	16gg\ 16bb-	.
.	16ffn\JJ 16aa-X	.
*rep	*	*
8E-\L 8G	16ee-\LL 16gg	.
.	16dd\ 16ff	.
8BB-\J	16ee-\ 16gg	.
.	16ff\JJ 16aa-	.
*Xrep	*	*
*rep	*	*
8E-\L 8G	16gg\LL 16bb-	.
.	16ff#X\ 16aan	.
8BB-\J	16gg\ 16bb-	.
.	16ee-\JJ 16gg	.
*Xrep	*	*
=32	=32	=32
8D\L 8F	16dd\LL 16ff	.
.	16cc#X\ 16een	.
8GG\J	16dd\ 16ff	.
.	16ccn\JJ 16ee-X	.
*rep	*	*
8D\L 8F	16bn\LL 16dd	.
.	16a#X\ 16cc#X	.
8GG\J	16b\ 16dd	.
.	16an\JJ 16ccn	.
*Xrep	*	*
*rep	*	*
8D\L 8F	16g\LL 16bn	.
.	16b\ 16dd	.
8GG\J	16cc\ 16ee-	.
.	16dd\JJ 16ff	.
*Xrep	*	*
=33	=33	=33
8C/L 8E-	16ee-\LL 16gg	.
.	16dd\ 16ff#X	.
8GG/J	16ee-\ 16gg	.
.	16dd\JJ 16ffn	.
*rep	*	*
8C/L 8E-	16cc\LL 16ee-	.
.	16bn\ 16dd	.
8GG/J	16cc\ 16ee-	.
.	16dd\JJ 16ff	.
*Xrep	*	*
*rep	*	*
8C/L 8E-	16ee-\LL 16gg	.
.	16dd\ 16ff#X	.
8GG/J	16ee-\ 16gg	.
.	16dd\JJ 16ffn	.
*Xrep	*	*
=34	=34	=34
8C/L 8E-	16cc\LL 16ee-X	.
.	16b#X\ 16dd	.
8FF/J	16cc\ 16ee-	.
.	16b-X\JJ 16dd	.
*rep	*	*
8C/L 8E-	16a\LL 16cc	.
.	16g#X\ 16bn	.
8FF/J	16a\ 16cc	.
.	16gn\JJ 16b-X	.
*Xrep	*	*
!!LO:LB:g=original	!	!
*rep	*	*
8C/L 8E-	16f\LL 16a	.
.	16a\ 16cc	.
8FF/J	16b-\ 16dd	.
.	16cc\JJ 16ee-	.
*Xrep	*	*
=35	=35	=35
8BB-/L 8D	16dd\LL 16ff	.
.	16cc#X\ 16een	.
8FF/J	16dd\ 16ff	.
.	16ccn\JJ 16ee-X	.
*rep	*	*
8BB-/L 8D	16b-\LL 16dd	.
.	16a\ 16cc	.
8FF/J	16b-\ 16dd	.
.	16cc\JJ 16ee-	.
*Xrep	*	*
*rep	*	*
8BB-/L 8D	16dd\LL 16ff	.
.	16cc#X\ 16een	.
8FF/J	16dd\ 16ff	.
.	16b-\JJ 16dd	.
*Xrep	*	*
=36	=36	=36
8GG/L	16b-\LL 16een	f
.	16dd\	.
8C/J	16ee\	.
.	16ff\JJ	.
8En\L 8B-	16gg\LL	.
.	16ff#X\	.
8C\	16gg\	.
.	16aa\JJ	.
8E\ 8B-	16bb-\LL	.
.	16aa\	.
8C\J	16bb-\	.
.	16gg\JJ	.
=37	=37	=37
.	(8qgg/	.
8F\L 8A	16ff\LL)	.
.	16een\	.
8C\J	16ff\	.
.	16dd\JJ	.
*rep	*	*
8F\L 8A	16aa\LL	.
.	16gg\	.
8C\J	16aa\	.
.	16ff\JJ	.
*Xrep	*	*
*rep	*	*
8F\L 8A	16ccc\LL	.
.	16bbn\	.
8C\J	16ccc\	.
.	16ff\JJ	.
*Xrep	*	*
=38	=38	=38
.	(8qff/	<
8G\L 8B-	16een\LL)	.
.	16dd\	.
8C\J	16ee\	.
.	16ff\JJ	.
.	(8qaa/	.
8En\L 8G 8B-	16gg\LL)	.
.	16ff#X\	.
8C\J	16gg\	.
.	16aa\JJ	.
.	(8qccc/	.
8E\L 8G 8B-	16bb-X\LL)	.
.	16aa\	.
8C\J	16bb-\	.
.	16gg\JJ	[[
=39	=39	=39
8F\ 8A	8ff\	p
8r	16f/LL 16a	.
!	!LO:TX:b:t=ritar&colon;	!
.	16g/JJ 16b-	.
4r	(8a\L 8cc	.
.	8b-'^<\ 8dd	.
4r	8cc'^<\ 8ee-X	.
!	!LO:TX:b:i:t=dal Segno.	!
.	8cc#X'^<\J) 8ee-	.
!!LO:LB:g=original	!	!
==40	==40	==40
*clefF4	*clefG2	*
*k[b-e-a-]	*k[b-e-a-]	*
*M2/4	*M2/4	*
!	!LO:TX:t=P:problem: w źródle metrum 2/4	!
!	!LO:N:vis=1	!
8E-\	2.rdd	p
8B->^\ 8e-> 8g>	.	.
8E-\L	.	.
8B->\ 8e-> 8g>	.	.
8B->\ 8e-> 8g>	.	.
8B->\J 8e-> 8g>	.	.
=41	=41	=41
8E-\L	4ree	.
8B->^\J 8e-> 8g>	.	.
8E-\L	4ree	.
8B->\ 8e-> 8g>	.	.
8B->\ 8e-> 8g>	8.ree	.
8B->\J 8e-> 8g>	.	.
.	16b-/	.
=42||	=42||	=42||
8E-\L	8..ee-/L	.
8B->^\J 8e-> 8g>	.	.
.	32ff/Jkk	.
8E-\L	4..gg/	.
8B->\ 8e-> 8g>	.	.
8B->\ 8e-> 8g>	.	.
8B->\J 8e-> 8g>	.	.
.	16aa-/	.
=43	=43	=43
8E-\L	8..aan/L	.
8B->^\J 8e-> 8g>	.	.
.	32bb-/Jkk	.
8E-\L	2ee-/	.
8B->\ 8e-> 8g>	.	.
8B->\ 8e-> 8g>	.	.
8B->\J 8e-> 8g>	.	.
=44	=44	=44
8BB-\L 8B-	8..een/L	.
8d>^\J 8f> 8a->	.	.
.	32ff/Jkk	.
8B-\L	4..b-/	.
8d>\ 8f> 8a->	.	.
8d>\ 8f> 8a->	.	.
8d>\J 8f> 8a->	.	.
.	16b-/	.
=45	=45	=45
8FF\L 8E-	8..ff#X/L	.
8B->^\J 8e-> 8g>	.	.
.	32gg/Jkk	.
8E-\L	4..ee-/	.
8B->\ 8e-> 8g>	.	.
8B->\ 8e-> 8g>	.	.
8B->\J 8e-> 8g>	.	.
.	16b-/	.
!!LO:LB:g=original	!	!
=46	=46	=46
8E-\L	8..ee-/L	.
8B->^\J 8e-> 8g>	.	.
.	32ff/Jkk	.
8E-\L	4..gg/	.
8B->\ 8e-> 8g>	.	.
8B->\ 8e-> 8g>	.	.
8B->\J 8e-> 8g>	.	.
.	16aa-/	.
=47	=47	=47
8D\L	8..aan/L	.
8B->^\J 8d> 8g>	.	.
.	32bb-/Jkk	.
8D\L	2gg/	.
!LO:TX:t=P:problem: 8d wydrapana	!	!
8B->\ 8d> 8g>	.	.
!LO:TX:t=P:problem: 8d wydrapana	!	!
8B->\ 8d> 8g>	.	.
!LO:TX:t=P:problem: 8d wydrapana	!	!
8B->\J 8d> 8g>	.	.
=48	=48	=48
8D\L	8..gg#X/L	.
8c>^\J 8d> 8f#X> 8an>	.	.
.	32aan/Jkk	.
8D\L	4..dd/	.
8c>\ 8d> 8f#> 8a>	.	.
8c>\ 8d> 8f#> 8a>	.	.
8c>\J 8d> 8f#> 8a>	.	.
.	16dd/	.
=49	=49	=49
8G\L	8..ff#X/L	.
8B->^\J 8d> 8g>	.	.
.	32gg/Jkk	.
8G\L	4..g/	.
8B->\ 8d> 8g>	.	.
8B->\ 8d> 8g>	.	.
8B->\J 8d> 8g>	.	.
.	(16gg/	.
=50	=50	=50
8BBn\L 8Bn	4aa-X/)	.
8d>^\J 8fn> 8a-X>	.	.
*	*Xtuplet	*
8B\L	(>12aa-/L	.
.	12gg/	.
8d>\ 8f> 8a->	.	.
.	12ff/J)	.
8d>\ 8f> 8a->	(12ff/L	.
.	12ee-/	.
8d>\J 8f> 8a->	.	.
.	12dd/J)	.
=51	=51	=51
8C\L 8c	4cc/	.
8c>^\J 8e-> 8g>	.	.
8c\L	4..g/	.
8e->\ 8g>	.	.
8e->\ 8g>	.	.
8e->\J 8g>	.	.
.	(16gg/	.
=52	=52	=52
8BBn\L 8Bn	4aa-/)	.
8d>^\J 8f> 8a->	.	.
8B\L	12aa-/L	.
.	12gg/	.
8d>\ 8f> 8a->	.	.
.	12ff/J	.
8d>\ 8f> 8a->	12ff/L	.
.	12ee-/	.
8d>\J 8f> 8a->	.	.
.	12dd/J	.
!!LO:LB:g=original	!	!
=53	=53	=53
8c\L	(2cc/	.
8e->\J 8g>	.	.
8c\L	.	.
8e->\J 8g>	.	.
8A-\L	8..gg/L)	.
8c>\J 8f>	.	.
.	32ff/Jkk	.
=54	=54	=54
8B-\L	4b-/	.
8d>\J 8f>	.	.
8A-X\L	8..cc/L	.
8B->\J 8d> 8f>	.	.
.	32dd/Jkk	.
8A-\L	8..ee-/L	.
8B->\J 8d> 8f>	.	.
.	32ff/Jkk	.
=55	=55	=55
8G\L	8..gg#X/L	.
8B->\J 8e->	.	.
.	32aa-/Jkk	.
8G\L	[2bb-/	.
8B->\J 8e->	.	.
8G\L	.	.
8B->^\J 8d-X> 8en>	.	.
=56	=56	=56
8F\L	8bb-/L]	.
8A->\J 8c> 8f>	16.ff/L	.
.	32gg/JJk	.
8F\L	4aa-/	.
8A->\J 8c> 8f>	.	.
8A-\L	8..cc/L	.
8c>\J 8f>	.	.
.	32dd/Jkk	.
=57	=57	=57
8B-\L	16g/LL 16ee-	.
.	16b-/	<
8BB-/J	16b-/ 16gg	[ >
.	16a-/JJ 16ff	]
8r	4a-/ 4ff	.
8BB-/	.	.
!LO:TX:t=P:problem: fermata nad kreską taktową	!	!
4E-;<\	8g/ 8ee-	.
!	!LO:TX:t=P:problem: fermata nad kreską taktową	!
.	8r;	.
!!LO:PB:g=original	!	!
=58:|!|:	=58:|!|:	=58:|!|:
*	*tuplet	*
!	!LO:TUP:a:problem:klamra łukowa	!
8BB-\L 8B-	12dd\L 12ff	p
.	12b-\ 12dd	.
8F\J	.	.
.	12cc\J 12ee-	.
8BB-\L 8B-	[>4dd\ [4ff	.
8F\J	.	.
!	!LO:TUP:a:problem:klamra łukowa	!
8BB-\L 8B-	12dd\L] 12ff]	.
.	12b-\ 12dd	.
8F\J	.	.
.	12cc\J 12dd	.
=59	=59	=59
*	*Xtuplet	*
!	!	!LO:HP:b:t=cres&colon;
8BB-\L 8B-	12dd\L 12ff	<
.	12b-\ 12dd	.
8F\J	.	.
.	12cc\J 12ee-	.
8BB-\L 8B-	12dd\L 12ff	.
.	12ee-\ 12gg	.
8F\J	.	.
.	12ff\J 12aan	.
8BB-\L 8B-	12gg\L 12bb-	.
.	12aa\ 12ccc	.
8F\J	.	.
.	12bb-\J 12ddd	.
=60	=60	=60
8AAn\L 8An	16ccc\ 16eee-	.
.	16r	.
8F\J	8ccc^<\ 8eee-	.
*rep	*	*
8AA\L 8A	12ccc\L 12eee-	.
.	12bb-\ 12ddd	.
8F\J	.	.
.	12aan\J 12ccc	.
*Xrep	*	*
*rep	*	*
8AA\L 8A	12bb-\L 12ddd	.
.	12aa\ 12ccc	.
8F\J	.	.
.	12gg\J 12bb-	.
*Xrep	*	*
=61	=61	=61
*tremolo	*	*
8AAn\L 8An	12aan\L 12ccc	.
.	12gg\ 12bb-	.
8F\	.	.
.	12ff\J 12aa	.
8AA\ 8A	12gg\L 12bb-	.
.	12ff\ 12aa	.
8F\	.	.
.	12ee-\J 12gg	.
8AA\ 8A	12ee-\L 12gg	.
.	12dd\ 12ff	.
8F\J	.	.
.	12cc\J 12ee-	.
=62	=62	=62
8BB-\L 8B-	12b-\L 12dd	.
.	12b-\ 12dd	.
8F\	.	.
!	!LO:TX:b:i:t=poco	!
.	12cc\J 12ee-	.
8BB-\ 8B-	[>4dd\ [4ff	.
8F\	.	.
8BB-\ 8B-	12dd\L] 12ff]	.
.	12b-\ 12dd	.
8F\J	.	.
.	12cc\J 12ee-	.
!!LO:LB:g=original	!	!
=63	=63	=63
8BB-\L 8B-	12dd\L 12ff	.
.	12b-\ 12dd	.
8F\	.	.
.	12cc\J 12ee-	.
8BB-\ 8B-	12dd\L 12ff	.
!	!LO:TX:i:b:t=a	!
.	12ee-\ 12gg	.
8F\	.	.
.	12ff\J 12aan	.
8BB-\ 8B-	12gg\L 12bb-	.
.	12aa\ 12ccc	.
8F\J	.	.
.	12bb-\J 12ddd	.
=64	=64	=64
8AAn\L 8An	16ccc\ 16eee-	.
.	16r	.
!	!LO:TX:i:b:t=poco	!
8F\	8ccc\ 8eee-	>
8AA\ 8A	12ccc\L 12eee-	]
.	12bb-\ 12ddd	.
8F\	.	.
.	12aan\J 12ccc	.
8AA\ 8A	12bb-\L 12ddd	.
.	12aa\ 12ccc	.
8F\J	.	.
.	12gg\J 12bb-	.
=65	=65	=65
8AAn\L 8An	12aan\L 12ccc	.
.	12gg\ 12bb-	.
8F\	.	.
.	12ff\J 12aa	.
8AA\ 8A	12gg\L 12bb-	.
.	12ff\ 12aa	.
8F\	.	.
.	12ee-\J 12gg	.
8AA\ 8A	12ee-\L 12gg	.
.	12dd\ 12ff	.
8F\J	.	.
.	12cc\J 12ee-	.
=66	=66	=66
8BB-\L 8B-	8b-\L 8dd	f
32r	16dd\L 16bb-	.
(32F\LL	.	.
32G\	16b-\JJ	.
32An\JJJ)	.	.
8B-\L	16dd\LL 16bb-	.
.	16b-\	.
8D'\ 8d	16dd\ 16bb-	.
.	16b-\JJ	.
8BB-'\ 8B-	16dd\LL 16bb-	.
.	16b-\	.
8AA-'\J 8A	16dd\ 16bb-	.
.	16b-\JJ	.
=67	=67	=67
*	*tremolo	*
8GG`\L 8G	16dd\LL 16bb-	.
.	16b-\	.
32r	16dd\ 16bb-	.
(32D\LL	.	.
32En\	16b-\	.
32F#X\JJJ)	.	.
8G\L	16dd\ 16bb-	.
.	16b-\	.
8BB-'\ 8B-	16dd\ 16bb-	.
.	16b-\	.
8GG'\ 8G	16dd\ 16bb-	.
.	16b-\	.
8FF'\J 8Fn	16dd\ 16bb-	.
.	16b-\JJ	.
!!LO:LB:g=original	!	!
=68	=68	=68
8EEn\L 8En	16cc#X\LL 16gg 16bb-	.
.	16b-\	.
16r	16cc#\ 16gg 16bb-	.
(32E\LL	16b-\	.
32F\JJJ	.	.
8G\L	16cc#\ 16gg 16bb-	.
.	16b-\	.
8An\)	16cc#\ 16gg 16bb-	.
.	16b-\	.
8B-\	16cc#\ 16gg 16bb-	.
.	16b-\	.
8E\J	16cc#\ 16gg 16bb-	.
.	16b-\JJ	.
=69	=69	=69
8F\L	16dd\LL 16ff 16bb-	.
.	16b-\	.
16r	16dd\ 16ff 16bb-	.
32B-\LL	16b-\	.
(32c\JJJ	.	.
8d\L	16dd\ 16ff 16bb-	.
.	16b-\	.
8B-\J)	16dd\ 16ff 16bb-	.
.	16b-\JJ	.
8F\L	16ee-\LL 16ff 16bb-	.
.	16cc\	.
8FF/J	16ee-\ 16ff 16aan	.
.	16cc\JJ	.
=70	=70	=70
8BB-\L	16dd\LL 16ff 16bb-	.
.	16b-\	.
32r	16dd\ 16ff 16bb-	.
(32F\LL	.	.
32G\	16b-\	.
32An\JJJ	.	.
16B-\LL	16dd\ 16ff 16bb-	.
16c\	16b-\	.
16d\	16dd\ 16ff 16bb-	.
16c\JJ)	16b-\	.
*Xtremolo	*	*
16B-\LL	16dd\ 16ff 16bb-	.
16An\	16b-\	.
16B-\	16dd\ 16ff 16bb-	.
16A\JJ	16b-\JJ	.
=71	=71	=71
8G\L	16dd\LL 16bb-	.
.	16b-\	.
32r	16dd\ 16bb-	.
(32D\LL	.	.
32En\	16b-\	.
32F#X\JJJ	.	.
16G\LL)	16dd\ 16bb-	.
16An\	16b-\	.
16B-\	16dd\ 16bb-	.
16A\JJ	16b-\	.
16G\LL	16dd\ 16bb-	.
16F#\	16b-\	.
16G\	16dd\ 16bb-	.
16Fn\JJ	16b-\JJ	.
=72	=72	=72
8En\L	16cc#X\LL 16gg 16bb-	.
.	16b-\	.
16r	16cc#\ 16gg 16bb-	.
(32E\LL	16b-\	.
32F\JJJ	.	.
16G\LL	16cc#\ 16gg 16bb-	.
16F#X\)	16b-\	.
16G\	16cc#\ 16gg 16bb-	.
16An\JJ	16b-\	.
16B-\LL	16cc#\ 16gg 16bb-	.
16A\	16b-\	.
16B-\	16cc#\ 16gg 16bb-	.
16E\JJ	16b-\JJ	.
=73	=73	=73
8F\L	16dd\LL 16ff 16bb-	.
.	16b-\	.
16r	16dd\ 16ff 16bb-	.
(32B-\LL	16b-\	.
32c\JJJ	.	.
8d\L)	16dd\ 16ff 16bb-	.
.	16b-\	.
8B-\J	16dd\ 16ff 16bb-	.
.	16b-\JJ	.
8F\L	16ee-\LL 16ff 16bb-	.
.	16cc\	.
8FF/J	16ee-\ 16ff 16aan	.
.	16cc\JJ	.
=74	=74	=74
*	*	*^
8BB-\L	8dd'\L 8bb-	.	.
!	!	!LO:HP:b:t=dim&colon;	!
16BB-\L 16B-	16b-'\L 16bb-	>	>
16BB-\JJ 16B-	16b-'\JJ 16bb-	.	.
8BB-\L 8B-	8b-'\L 8bb-	.	.
16BB-\L 16B-	16b-'\L 16bb-	.	.
16BB-\JJ 16B-	16b-'\JJ 16bb-	.	.
8BB-\L 8B-	8b-'\L 8bb-	.	.
16BB-\L 16B-	16b-'\L 16bb-	.	.
16BB-\JJ 16B-	16b-'\JJ 16bb-	.	.
=75	=75	=75	=75
8BB-\ 8B-	8b-'\L 8bb-	.	.
8r	16b-'\L 16bb-	pp	.
.	16b-'\JJ 16bb-	.	.
*	*Xtremolo	*	*
4r	8b-'\L 8bb-	.	.
.	8b-'\ 8bb-	.	.
4r	8b-'\ 8bb-	.	.
.	8b-'\J 8bb-	.	]]
!	!LO:TX:b:iB:t=D.S.	!	!
*	*	*v	*v
==	==	==
*-	*-	*-
!!!system-decoration: {(s1,s2)}
!!!RDF**kern: > = above
!!!RDF**kern: < = below
!!!ENC: Berenika Jozajtis
!!!END: 2022-08-15
!!!ENC: Jan Barakat
!!!END: 2022-09-14!!!YEC: Copyright 2022 Narodowy Instytut Fryderyka Chopina (https://polishscores.org)
!!!YEM: License CC-BY-4.0 (https://creativecommons.org/licenses/by/4.0)
